svgs/regular/rug.svg

<svg xmlns="http://www.w3.org/2000/svg" viewBox="0 0 640 512"><!--! Font Awesome Pro 6.6.0 by @fontawesome - https://fontawesome.com License - https://fontawesome.com/license (Commercial License) Copyright 2024 Fonticons, Inc. --><path d="M24 64C10.7 64 0 74.7 0 88s10.7 24 24 24l8 0 0 40-8 0c-13.3 0-24 10.7-24 24s10.7 24 24 24l8 0 0 32-8 0c-13.3 0-24 10.7-24 24s10.7 24 24 24l8 0 0 32-8 0c-13.3 0-24 10.7-24 24s10.7 24 24 24l8 0 0 40-8 0c-13.3 0-24 10.7-24 24s10.7 24 24 24l32 0 24 0 480 0 24 0 32 0c13.3 0 24-10.7 24-24s-10.7-24-24-24l-8 0 0-40 8 0c13.3 0 24-10.7 24-24s-10.7-24-24-24l-8 0 0-32 8 0c13.3 0 24-10.7 24-24s-10.7-24-24-24l-8 0 0-32 8 0c13.3 0 24-10.7 24-24s-10.7-24-24-24l-8 0 0-40 8 0c13.3 0 24-10.7 24-24s-10.7-24-24-24l-32 0-24 0L80 64 56 64 24 64zm56 48l48 0 0 288-48 0 0-64 0-80 0-80 0-64zM464 400l-288 0 0-288 288 0 0 288zm48 0l0-288 48 0 0 64 0 80 0 80 0 64-48 0z"/></svg>

<svg xmlns="http://www.w3.org/2000/svg" viewBox="0 0 640 512"><!--! Font Awesome Pro 6.5.2 by @fontawesome - https://fontawesome.com License - https://fontawesome.com/license (Commercial License) Copyright 2024 Fonticons, Inc. --><path d="M24 64C10.7 64 0 74.7 0 88s10.7 24 24 24h8v40H24c-13.3 0-24 10.7-24 24s10.7 24 24 24h8v32H24c-13.3 0-24 10.7-24 24s10.7 24 24 24h8v32H24c-13.3 0-24 10.7-24 24s10.7 24 24 24h8v40H24c-13.3 0-24 10.7-24 24s10.7 24 24 24H56 80 560h24 32c13.3 0 24-10.7 24-24s-10.7-24-24-24h-8V360h8c13.3 0 24-10.7 24-24s-10.7-24-24-24h-8V280h8c13.3 0 24-10.7 24-24s-10.7-24-24-24h-8V200h8c13.3 0 24-10.7 24-24s-10.7-24-24-24h-8V112h8c13.3 0 24-10.7 24-24s-10.7-24-24-24H584 560 80 56 24zm56 48h48V400H80V336 256 176 112zM464 400H176V112H464V400zm48 0V112h48v64 80 80 64H512z"/></svg>
